X: 33467
T: Rachel's
R: polka
M: 2/4
K: Dmajor
DE A2|DE B2|dc BA|BA A2|
DE A2|DE dc|de Bc|BA D2:|
E3 F|ED EF|E3 F|EF A2|
[1E3 F|ED EF|EF G2|F2 E2:|
[2DE A2|DE dc|de Bc|BA D2||

